src/gui/resources/actions/file/import_object_refresh_animation.bw.svg

<?xml version="1.0" encoding="UTF-8" standalone="no"?>
<svg
   xmlns:dc="http://purl.org/dc/elements/1.1/"
   xmlns:cc="http://creativecommons.org/ns#"
   xmlns:rdf="http://www.w3.org/1999/02/22-rdf-syntax-ns#"
   xmlns:svg="http://www.w3.org/2000/svg"
   xmlns="http://www.w3.org/2000/svg"
   xmlns:sodipodi="http://sodipodi.sourceforge.net/DTD/sodipodi-0.dtd"
   xmlns:inkscape="http://www.inkscape.org/namespaces/inkscape"
   fill="#000000"
   height="24"
   viewBox="0 0 24 24"
   width="24"
   id="svg2"
   version="1.1"
   inkscape:version="0.91 r13725"
   sodipodi:docname="import_object_refresh_animation.bw.svg">
  <metadata
     id="metadata12">
    <rdf:RDF>
      <cc:Work
         rdf:about="">
        <dc:format>image/svg+xml</dc:format>
        <dc:type
           rdf:resource="http://purl.org/dc/dcmitype/StillImage" />
      </cc:Work>
    </rdf:RDF>
  </metadata>
  <defs
     id="defs10" />
  <sodipodi:namedview
     pagecolor="#ffffff"
     bordercolor="#666666"
     borderopacity="1"
     objecttolerance="10"
     gridtolerance="10"
     guidetolerance="10"
     inkscape:pageopacity="0"
     inkscape:pageshadow="2"
     inkscape:window-width="1920"
     inkscape:window-height="1142"
     id="namedview8"
     showgrid="false"
     inkscape:zoom="4.9166667"
     inkscape:cx="12.20339"
     inkscape:cy="12"
     inkscape:window-x="0"
     inkscape:window-y="0"
     inkscape:window-maximized="1"
     inkscape:current-layer="svg2" />
  <path
     d="m 20.804457,1.3460892 0,2 -2,0 0,-2 -8,0 0,2 -1.9999996,0 0,-2 -2,0 0,17.9999998 2,0 0,-2 1.9999996,0 0,2 8,0 0,-2 2,0 0,2 2,0 0,-17.9999998 -2,0 z m -10,13.9999998 -1.9999996,0 0,-2 1.9999996,0 0,2 z m 0,-4 -1.9999996,0 0,-1.9999998 1.9999996,0 0,1.9999998 z m 0,-3.9999998 -1.9999996,0 0,-2 1.9999996,0 0,2 z m 10,7.9999998 -2,0 0,-2 2,0 0,2 z m 0,-4 -2,0 0,-1.9999998 2,0 0,1.9999998 z m 0,-3.9999998 -2,0 0,-2 2,0 0,2 z"
     id="path4"
     inkscape:connector-curvature="0" />
  <path
     d="M0 0h24v24H0z"
     fill="none"
     id="path6" />
  <path
     style="color:#000000;display:inline;overflow:visible;visibility:visible;opacity:1;fill:#ffffff;fill-opacity:1;fill-rule:nonzero;stroke:none;stroke-width:2.70000005;stroke-linecap:butt;stroke-linejoin:miter;stroke-miterlimit:4;stroke-dasharray:none;stroke-dashoffset:0;stroke-opacity:1;marker:none;marker-start:none;marker-mid:none;marker-end:none;enable-background:accumulate"
     id="path4150"
     sodipodi:type="arc"
     sodipodi:cx="6.4322033"
     sodipodi:cy="19.474575"
     sodipodi:rx="6.9915257"
     sodipodi:ry="7.3728814"
     sodipodi:start="4.712389"
     sodipodi:end="0"
     d="m 6.4322034,12.101694 a 6.9915257,7.3728814 0 0 1 6.9915256,7.372881 l -6.9915257,0 z" />
  <path
     inkscape:connector-curvature="0"
     d="m 8.3376192,16.342417 c -0.59824,-0.56015 -1.37459,-0.86721 -2.19821,-0.86648 -1.48225,10e-4 -2.76188,1.01762 -3.11519,2.42741 -0.0257,0.10263 -0.11715,0.1751 -0.22296,0.1751 l -1.09656,0 c -0.14348,0 -0.25248,-0.13026 -0.22594,-0.27127 0.41405,-2.19875 2.34451,-3.86214 4.66356,-3.86214 1.27156,0 2.42629,0.50015 3.27831,1.31437 l 0.6834398,-0.68345 c 0.28932,-0.28932 0.78401,-0.0844 0.78401,0.32476 l 0,2.56537 c 0,0.25365 -0.20562,0.45927 -0.45927,0.45927 l -2.5653698,0 c -0.40917,0 -0.61408,-0.49469 -0.32476,-0.78403 l 0.79894,-0.79891 z m -6.4818,3.11383 2.56537,0 c 0.40917,0 0.61408,0.49469 0.32476,0.78403 l -0.79893,0.79893 c 0.59823,0.56018 1.37464,0.86723 2.19828,0.86649 1.48148,-0.001 2.76163,-1.01697 3.11512,-2.4274 0.0257,-0.10263 0.11715,-0.1751 0.22295,-0.1751 l 1.0965798,0 c 0.14348,0 0.25248,0.13026 0.22594,0.27128 -0.41407,2.1987 -2.3445198,3.86209 -4.6635698,3.86209 -1.27156,0 -2.42629,-0.50014 -3.27831,-1.31437 l -0.68345,0.68345 c -0.28932,0.28932 -0.78401,0.0844 -0.78401,-0.32476 l 0,-2.56537 c 0,-0.25365 0.20562,-0.45927 0.45927,-0.45927 z"
     id="path4-3" />
</svg>

<?xml version="1.0" encoding="UTF-8" standalone="no"?>
<svg
   xmlns:dc="http://purl.org/dc/elements/1.1/"
   xmlns:cc="http://creativecommons.org/ns#"
   xmlns:rdf="http://www.w3.org/1999/02/22-rdf-syntax-ns#"
   xmlns:svg="http://www.w3.org/2000/svg"
   xmlns="http://www.w3.org/2000/svg"
   xmlns:sodipodi="http://sodipodi.sourceforge.net/DTD/sodipodi-0.dtd"
   xmlns:inkscape="http://www.inkscape.org/namespaces/inkscape"
   fill="#000000"
   height="24"
   viewBox="0 0 24 24"
   width="24"
   id="svg2"
   version="1.1"
   inkscape:version="0.92.2 5c3e80d, 2017-08-06"
   sodipodi:docname="import_object_refresh_animation.bw.svg">
  <metadata
     id="metadata12">
    <rdf:RDF>
      <cc:Work
         rdf:about="">
        <dc:format>image/svg+xml</dc:format>
        <dc:type
           rdf:resource="http://purl.org/dc/dcmitype/StillImage" />
      </cc:Work>
    </rdf:RDF>
  </metadata>
  <defs
     id="defs10" />
  <sodipodi:namedview
     pagecolor="#ffffff"
     bordercolor="#666666"
     borderopacity="1"
     objecttolerance="10"
     gridtolerance="10"
     guidetolerance="10"
     inkscape:pageopacity="0"
     inkscape:pageshadow="2"
     inkscape:window-width="1440"
     inkscape:window-height="855"
     id="namedview8"
     showgrid="false"
     inkscape:zoom="13.906433"
     inkscape:cx="8.0242532"
     inkscape:cy="9.1236334"
     inkscape:window-x="0"
     inkscape:window-y="1"
     inkscape:window-maximized="1"
     inkscape:current-layer="svg2"
     inkscape:snap-nodes="false"
     inkscape:snap-global="false" />
  <path
     style="fill:#505050;fill-opacity:1"
     d="M 6.8046875 1.3457031 L 6.8046875 12.121094 A 6.9915257 7.3728814 0 0 1 10.314453 13.345703 L 10.804688 13.345703 L 10.804688 13.730469 A 6.9915257 7.3728814 0 0 1 13.419922 19.345703 L 18.804688 19.345703 L 18.804688 17.345703 L 20.804688 17.345703 L 20.804688 19.345703 L 22.804688 19.345703 L 22.804688 1.3457031 L 20.804688 1.3457031 L 20.804688 3.3457031 L 18.804688 3.3457031 L 18.804688 1.3457031 L 10.804688 1.3457031 L 10.804688 3.3457031 L 8.8046875 3.3457031 L 8.8046875 1.3457031 L 6.8046875 1.3457031 z M 8.8046875 5.3457031 L 10.804688 5.3457031 L 10.804688 7.3457031 L 8.8046875 7.3457031 L 8.8046875 5.3457031 z M 18.804688 5.3457031 L 20.804688 5.3457031 L 20.804688 7.3457031 L 18.804688 7.3457031 L 18.804688 5.3457031 z M 8.8046875 9.3457031 L 10.804688 9.3457031 L 10.804688 11.345703 L 8.8046875 11.345703 L 8.8046875 9.3457031 z M 18.804688 9.3457031 L 20.804688 9.3457031 L 20.804688 11.345703 L 18.804688 11.345703 L 18.804688 9.3457031 z M 18.804688 13.345703 L 20.804688 13.345703 L 20.804688 15.345703 L 18.804688 15.345703 L 18.804688 13.345703 z "
     id="path4" />
  <path
     d="M0 0h24v24H0z"
     fill="none"
     id="path6" />
  <path
     inkscape:connector-curvature="0"
     d="m 10.405879,15.823685 -2.1695845,2.169586 h 1.6271888 c 0,1.795332 -1.4590459,3.254377 -3.2543775,3.254377 -0.5478201,0 -1.0685205,-0.135598 -1.5187094,-0.379677 L 4.298498,21.659869 c 0.6671474,0.42307 1.4590458,0.672572 2.3106078,0.672572 2.3973914,0 4.3391692,-1.941778 4.3391692,-4.33917 h 1.627189 z m -7.0511505,2.169586 c 0,-1.795332 1.4590458,-3.254378 3.2543773,-3.254378 0.5478203,0 1.0685207,0.135599 1.5187095,0.379678 l 0.7918986,-0.791898 c -0.6671474,-0.42307 -1.459046,-0.672572 -2.3106081,-0.672572 -2.3973912,0 -4.3391698,1.941778 -4.3391698,4.33917 H 0.64274739 l 2.16958491,2.169584 2.1695849,-2.169584 z"
     id="path5228"
     style="stroke-width:0.54239625;fill:#505050;fill-opacity:1" />
</svg>
